X: 1
T: the Handsome Young Maidens
C: by Charlie Lennon
R: jig
Z: 2011 John Chambers <jc:trillian.mit.edu>
M: 6/8
L: 1/8
K: A
|:\
"A"aed cdB | Ace aga | "E7"bee dee | Bee bag |
"A"aed cdB | Ace aga | "E7"bee dee |1 BAG A3 :|2 BAG "A"A2B ||
|:\
"A"c2A EAc | "D"d2f fed | "A"cde aec | "E7"B2f fed | "A"c2A EAc | "D"d2f fed |
[1 "A"cde aec "E7"dBe "A"A2B :|2 "A"ece "D"fdf | "E7"gfg bag |]["Coda" "A"ece "D"fdf | "E7"gfg "A"a3 |]
